docs/assets/images/simple-illustration__commentbubbles-alt.svg

<svg width="48" height="48" viewBox="0 0 48 48" fill="none" xmlns="http://www.w3.org/2000/svg">
<path d="M10.3387 25.9739C10.3387 25.9739 6.82577 21.0563 8.15281 18.0116C9.47986 14.967 11.3528 10.2046 20.3315 10.127C29.3102 10.0494 32.1196 18.4022 31.6514 21.214C31.1832 24.0233 27.2797 28.708 22.8303 29.4115C18.3809 30.115 16.2727 29.3339 16.2727 29.3339C16.2727 29.3339 11.9787 31.755 7.60693 30.428C7.60693 30.428 9.87044 27.6186 10.3387 25.9786V25.9739Z" fill="#5BE3AA"/>
<path d="M31.3386 17.7787C31.3386 17.7787 32.588 24.1034 28.0586 26.9904C24.1551 29.3315 22.1246 30.0351 16.894 29.6445C16.894 29.6445 17.3623 32.8445 20.9528 34.9527C24.5434 37.0609 29.1504 37.5291 31.2586 36.5927C31.2586 36.5927 37.1927 38.6232 40.002 37.6068C40.002 37.6068 37.2703 34.0162 37.348 32.9221C37.348 32.9221 40.4703 29.9551 39.6891 25.8963C38.9079 21.8375 34.6939 18.0117 31.3363 17.7764L31.3386 17.7787Z" fill="#F25730"/>
<path d="M10.2966 25.8117C8.84718 24.1717 7.99072 22.1412 7.99072 19.9436C7.99072 14.4895 13.2683 10.0684 19.7788 10.0684C26.2894 10.0684 31.567 14.4895 31.567 19.9436C31.567 25.3976 26.2894 29.8188 19.7788 29.8188C18.6589 29.8188 17.5742 29.687 16.5483 29.4423" stroke="#002140" stroke-width="0.705875" stroke-linecap="round" stroke-linejoin="round"/>
<path d="M10.2963 25.8115C9.99986 28.1103 7.5293 30.4844 7.5293 30.4844C7.5293 30.4844 13.7292 31.1456 16.548 29.4444" stroke="#002140" stroke-width="0.705875" stroke-linecap="round" stroke-linejoin="round"/>
<path d="M16.5625 29.4399C17.8307 33.7481 22.473 36.9434 28.0094 36.9434C29.1294 36.9434 30.2141 36.8116 31.24 36.5669" stroke="#002140" stroke-width="0.705875" stroke-linecap="round" stroke-linejoin="round"/>
<path d="M37.4911 32.9363C38.9405 31.2963 39.7969 29.2657 39.7969 27.0681C39.7969 22.6376 36.3122 18.887 31.5146 17.6353" stroke="#002140" stroke-width="0.705875" stroke-linecap="round" stroke-linejoin="round"/>
<path d="M37.4914 32.9365C37.7879 35.2353 40.2585 37.6094 40.2585 37.6094C40.2585 37.6094 34.0585 38.2706 31.2397 36.5694" stroke="#002140" stroke-width="0.705875" stroke-linecap="round" stroke-linejoin="round"/>
<path d="M14.8939 22.1247C15.7853 22.1247 16.508 21.402 16.508 20.5106C16.508 19.6191 15.7853 18.8965 14.8939 18.8965C14.0024 18.8965 13.2798 19.6191 13.2798 20.5106C13.2798 21.402 14.0024 22.1247 14.8939 22.1247Z" fill="#008C59"/>
<path d="M19.8636 22.1247C20.7551 22.1247 21.4777 21.402 21.4777 20.5106C21.4777 19.6191 20.7551 18.8965 19.8636 18.8965C18.9722 18.8965 18.2495 19.6191 18.2495 20.5106C18.2495 21.402 18.9722 22.1247 19.8636 22.1247Z" fill="#008C59"/>
<path d="M24.8324 22.1247C25.7238 22.1247 26.4465 21.402 26.4465 20.5106C26.4465 19.6191 25.7238 18.8965 24.8324 18.8965C23.9409 18.8965 23.2183 19.6191 23.2183 20.5106C23.2183 21.402 23.9409 22.1247 24.8324 22.1247Z" fill="#008C59"/>
</svg>

<svg xmlns="http://www.w3.org/2000/svg" width="48" height="48" fill="none" viewBox="0 0 48 48"><path fill="#5be3aa" d="M10.339 25.974s-3.513-4.918-2.186-7.962c1.327-3.045 3.2-7.807 12.178-7.885 8.98-.078 11.789 8.275 11.32 11.087-.468 2.81-4.371 7.494-8.82 8.198-4.45.703-6.558-.078-6.558-.078s-4.294 2.421-8.666 1.094c0 0 2.263-2.81 2.732-4.45z"/><path fill="#f25730" d="M31.339 17.779s1.249 6.324-3.28 9.211c-3.904 2.342-5.934 3.045-11.165 2.655 0 0 .468 3.2 4.059 5.308 3.59 2.108 8.197 2.576 10.306 1.64 0 0 5.934 2.03 8.743 1.014 0 0-2.732-3.59-2.654-4.685 0 0 3.122-2.967 2.341-7.026s-4.995-7.884-8.353-8.12z"/><path stroke="#002140" stroke-linecap="round" stroke-linejoin="round" stroke-width=".706" d="M10.297 25.812c-1.45-1.64-2.306-3.67-2.306-5.868 0-5.454 5.277-9.876 11.788-9.876 6.51 0 11.788 4.422 11.788 9.876s-5.278 9.875-11.788 9.875a14 14 0 0 1-3.23-.377m-6.253-3.63C10 28.11 7.53 30.484 7.53 30.484s6.2.662 9.019-1.04"/><path stroke="#002140" stroke-linecap="round" stroke-linejoin="round" stroke-width=".706" d="M16.563 29.44c1.268 4.308 5.91 7.503 11.446 7.503 1.12 0 2.205-.131 3.231-.376m6.251-3.631c1.45-1.64 2.306-3.67 2.306-5.868 0-4.43-3.485-8.181-8.282-9.433m5.976 15.302c.297 2.298 2.767 4.672 2.767 4.672s-6.2.662-9.018-1.04"/><path fill="#008c59" d="M14.894 22.125a1.614 1.614 0 1 0 0-3.229 1.614 1.614 0 0 0 0 3.229m4.97 0a1.614 1.614 0 1 0 0-3.228 1.614 1.614 0 0 0 0 3.228m4.968 0a1.614 1.614 0 1 0 0-3.229 1.614 1.614 0 0 0 0 3.229"/></svg>
